X:1
T:Repose (Harmonia), LM
T:Repose (Harmonia), LM
T:Harmonia Sacra, 5th edition, 1851
T:Public Domain Courtesy of the Cyber Hymnal™
C:Harmonia Sacra, 5th edition, 1851
Z:Public Domain
Z:Courtesy of the Cyber Hymnal™
%%score ( 1 2 ) 3
L:1/8
M:3/2
K:A
V:1 treble 
V:2 treble 
V:3 bass 
V:1
 [EA]2 [EA]2 [EA]2 | [EG]6 [EA]2 [EB]2 [EG]2 | [EA]6 [Ec]2 [Ec]2 [Ec]2 | [GB]6 G2 [FA]2 F2 | %4
 E6 [EG]2 [EG]2 [EG]2 | [EA]6 [EA]2 [GB]2 [GB]2 | [Ac]6 [Ac]2 [Ac]2 [Ac]2 | %7
 [Fd]6 [FB]2 [EA]2 [EG]2 | [EA]6 |] %9
V:2
 x6 | x12 | x12 | x6 G2 F2 x2 | E6 x6 | x12 | x12 | x12 | x6 |] %9
V:3
 [A,C]2 [A,C]2 [A,C]2 | [E,B,]6 [E,C]2 [E,E]2 [E,E]2 | [A,C]6 [A,E]2 [A,E]2 [A,E]2 | %3
 [E,E]6 [E,C]2 [A,C]2 [B,^D]2 | [E,E]6 [E,B,]2 [E,B,]2 [D,B,]2 | [C,C]6 [A,,C]2 [D,D]2 [E,D]2 | %6
 [A,,E]6 [A,E]2 [A,E]2 [A,E]2 | [D,F]6 [D,D]2 [E,E]2 [E,E]2 | [A,,C]6 |] %9

